vendor/shopware/storefront/Resources/app/storefront/dist/assets/icon/solid/x-square.svg

<svg xmlns="http://www.w3.org/2000/svg" width="16" height="16" viewBox="0 0 16 16">
  <path fill="#758CA3" fill-rule="evenodd" d="M8,6.58578644 L9.41421356,5.17157288 C9.80473785,4.78104858 10.4379028,4.78104858 10.8284271,5.17157288 C11.2189514,5.56209717 11.2189514,6.19526215 10.8284271,6.58578644 L9.41421356,8 L10.8284271,9.41421356 C11.2189514,9.80473785 11.2189514,10.4379028 10.8284271,10.8284271 C10.4379028,11.2189514 9.80473785,11.2189514 9.41421356,10.8284271 L8,9.41421356 L6.58578644,10.8284271 C6.19526215,11.2189514 5.56209717,11.2189514 5.17157288,10.8284271 C4.78104858,10.4379028 4.78104858,9.80473785 5.17157288,9.41421356 L6.58578644,8 L5.17157288,6.58578644 C4.78104858,6.19526215 4.78104858,5.56209717 5.17157288,5.17157288 C5.56209717,4.78104858 6.19526215,4.78104858 6.58578644,5.17157288 L8,6.58578644 Z M2,0 L14,0 C15.1045695,0 16,0.8954305 16,2 L16,14 C16,15.1045695 15.1045695,16 14,16 L2,16 C0.8954305,16 0,15.1045695 0,14 L0,2 C0,0.8954305 0.8954305,0 2,0 Z M2,2 L2,14 L14,14 L14,2 L2,2 Z"/>
</svg>

<svg xmlns="http://www.w3.org/2000/svg" width="16" height="16" viewBox="0 0 16 16"><path fill="#758CA3" fill-rule="evenodd" d="m8 6.5858 1.4142-1.4142c.3905-.3906 1.0237-.3906 1.4142 0 .3906.3905.3906 1.0237 0 1.4142L9.4142 8l1.4142 1.4142c.3906.3905.3906 1.0237 0 1.4142-.3905.3906-1.0237.3906-1.4142 0L8 9.4142l-1.4142 1.4142c-.3905.3906-1.0237.3906-1.4142 0-.3906-.3905-.3906-1.0237 0-1.4142L6.5858 8 5.1716 6.5858c-.3906-.3905-.3906-1.0237 0-1.4142.3905-.3906 1.0237-.3906 1.4142 0L8 6.5858zM2 0h12c1.1046 0 2 .8954 2 2v12c0 1.1046-.8954 2-2 2H2c-1.1046 0-2-.8954-2-2V2C0 .8954.8954 0 2 0zm0 2v12h12V2H2z"/></svg>
